X:1
T:Carnaval de Venise
T:Air vari\'e pour Cornet, Trompette, Bugle, Baryton ou Tenorhorn
T:Introduction
C:Joseph Jean Baptiste Laurent Arban
B:From "Method for the Cornet"
Z:Transcribed by Frank Nordberg - http://www.musicaviva.com
F:http://abc.musicaviva.com/tunes/arban-joseph-jean-baptiste-laur/arban-carnaval/arban-carnaval-1.abc
m:Nn3 = n- (3n/o/n/ (3m/n/o/
M:6/8
L:1/8
Q:3/8=72
K:F
P:Introduction
"_p"c|"^Allegretto"c2(c {e}d2c)|F2(F B2A)|(A3- AGC)|F2 z z2 (F|G2D A2D)|(c2B) A{c}BG|("   ~"NF3 F2G)|
W:p. 229
E3-E z c|c2(c {e}d2c)|F2(F B2A)|(A3- AGC)|F3-F2A|(G2e) e2e|(e2d) (A2=B)|("_>"d6|c)Hc2 z GA|
B2"_cresc."B B2B|B2(B e2d)|(^c3 {c/d/}c=Bc)|d3-d_BA|(^G2FE2D|d2) ((3F/=G/F/ "^rall."E2D)|HA3-A2A|
({A}G^FG e2d)|=F2(F A2d)|(c3-c2B)|A6|({A}G^FG e2d)|(=F2(3F/G/F/ E2F)|(C=B,C "^rall."A2G)|F3-F z z ||


